X:149
T:Brudmarsch efter Johan Magnus Dahl
T:(SvL Småland 149)
R:Marsch
S:Johan Magnus Dahl
O:Skatelöv, Småland
B:Svenska Låtar Småland
N:SvL: Modern och en syster till Dahl brukade sjunga marschen. (A.B.)
M:C
L:1/8
K:C
G2|c3 d e2 G2|c3 d e2f2|d3 (d/e/) dc BA|G4 E2 G2|
c3 d e2 G2|c3 d e2f2|d3 (d/e/) dc BA|G4 E3 G|
c4 e4|g6 e2|dc Bc d2 e2|[cE]4 z2:|
|:Bc|d3 B G2G2|(c3 d) e2 f2|g3 e c2 c2|G2G2G2 e>(d|c2) G2G2 e>(d|c4) z2:|

